!! 00000] TT[WS
!!!OTL: Gongda shijiagang
!!!ARE: Asia, China, Shanxi Dinxiang
!! Ethnic Group: Han
!! WI, 287 (2)
!!!SCT: J0347
!!!YEM: Copyright 1995, estate of Helmut Schaffrath.
**kern
*ICvox
*Ivox
*M2/4
*k[f#]
*G:
{4ee
4ee
=1
8ff#
4ee
8ee
=2
8.b
16dd
8ee
8ee
=3
2dd}
=4
{8.b
16dd
8ee
8ee
=5
8ff#
4ee
8b
=6
8.dd
16b
8a
8b
=7
2a}
=8
{8b
8dd
4a
=9
8b
8dd
4a
=10
8dd
8b
8dd
8ee
=11
2g}
=12
{8e
8g
8a
8a
=13
8b
4a
8e
=14
8g
8e
8d
8e
=15
2d}
=16
{8.b
16a
8b
8dd
=17
4.a
8b
=18
8.dd
16b
8dd
8ee
=19
2g}
=20
{8.e
16g
8a
8a
=21
8b
4a
8e
=22
8.g
16e
8d
8e
=23
2d}
==
!!!AGN: Xiaodiao. Xinminge, Xuanchuan
!! Neue Text. Politische Liede
!!!ONB: ESAC (Essen Associative Code) Database: CHINA
!!!AMT: simple duple
!!!AIN: vox
!!!EED: Helmut Schaffrath
!!!EEV: 1.0
*-
